!!!!SEGMENT: pl-kk--kk-i-68--004_anonim--missa-posuisti-domine.krn
!!!id: 17xx:2276
!!!COM: Anonim
!!!COM-rism: pe30004985
!!!CDT:
!!!CNT:
!!!OTL: Missa – Posuisti Domine
!!!PDT:
!!!SMS-siglum: PL-Kk
!!!SMS-shelfmark: Kk.I.68
!!!NIFC-rismID: 1001154624
!!!URL-scan: http://repozytorium.nifc.pl/skany/pl-kk-nut--i-68
!!!ONB-nifc: UWAGA: części Mszy: 1. Protexisti me, 2. Kyrie, 3. Alleluia, 4. Posuisti Domine, 5. Sanctus, 6. Benedictus, 7. Agnus Dei, 8. Dona nobis, 9. Deo gratias
!!!SMS-variant: Baſso PL-Kk Kk.I.68:0011-0012
!!!SMS-altvar: Baſso PL-Kk Kk.I.68:0016-0017
**kern	**text	**kern	**text	**kern	**text
*part3	*part3	*part2	*part2	*part1	*part1
*staff3	*staff3	*staff2	*staff2	*staff1	*staff1
*I"Baſso	*	*I"Tenore Secundo	*	*I"Tenore Primo	*
*I'B	*	*I'T 2	*	*I'T 1	*
*clefF4	*	*clefC4	*	*clefC4	*
*k[]	*	*k[]	*	*k[]	*
*M2/2	*	*M2/2	*	*M2/2	*
*met(c|)	*	*met(c|)	*	*met(c|)	*
=1	=1	=1	=1	=1	=1
*	*	*	*	*2\right	*
0r	.	1r	.	2.c\	Po-
.	.	.	.	4c\	-su-
=2-	=2	=2	=2	=2	=2
.	.	2.G/	Po-	2g\	-is-
.	.	.	.	2g\	-ti
.	.	4G/	-su-	.	.
=3	=3	=3	=3	=3	=3
*	*	*2\right	*	*	*
2.C/	Po-	2e\	-is-	2.g\	po-
.	.	2e\	-ti	.	.
4C/	-su-	.	.	4g\	-su-
=4	=4	=4	=4	=4	=4
*2\right	*	*	*	*	*
2G\	-is-	2.B\	Do-	2d\	-is-
2G\	-ti	.	.	4d\	-ti
.	.	8c\L	.	8e\L	Do-
.	.	8d\J	.	8f\J	.
=5	=5	=5	=5	=5	=5
4C/	Do-	4e\	.	4g\	.
4D/	.	4d\	.	4f\	.
4E/	.	4c\	.	4e\	.
4C/	.	4e\	.	4g\	.
!	!	!LO:LB:g=original	!	!	!
=6	=6	=6	=6	=6	=6
2F\	.	4d\	.	4f\	.
.	.	4c\	.	4e\	.
2G\	-mi-	4B\	.	4d\	.
.	.	4d\	-mi-	4f\	-mi-
!	!	!	!	!LO:LB:g=original	!
=7	=7	=7	=7	=7	=7
2C/	-ne	2c\	-ne	2e\	-ne
2c\	in	2c\	in	2e\	in
=8	=8	=8	=8	=8	=8
4G\	ca-	4B\	ca-	4d\	ca-
4A\	.	4A\	.	4c\	.
4B\	.	4G\	.	4B\	.
4A\	.	4A\	.	4c\	.
!LO:LB:g=original	!	!	!	!	!
=9	=9	=9	=9	=9	=9
4G\	.	4B\	.	4d\	.
4A\	.	4c\	.	4e\	.
4B\	.	4d\	.	4f\	.
4G\	.	4B\	.	4d\	.
=10	=10	=10	=10	=10	=10
4c\	.	4c\	.	4e\	.
4G\	.	4B\	.	4d\	.
4E\	.	4e\	.	4c\	.
4D\	.	4d\	.	4d\	.
=11	=11	=11	=11	=11	=11
1C	.	4c\	.	4e\	.
.	.	4d\	.	4f\	.
.	.	4e\	.	4g\	.
.	.	4c\	.	4e\	.
=12	=12	=12	=12	=12	=12
4G\	.	2.d\	.	2.f\	.
4A\	.	.	.	.	.
4B\	.	.	.	.	.
4G\	-pi-	4d\	-pi-	4f\	-pi-
=13	=13	=13	=13	=13	=13
2c\	-te	2c\	-te	2e\	-te
2F\	e-	2d\	e-	2f\	e-
!	!	!LO:LB:g=original	!	!LO:LB:g=original	!
=14	=14	=14	=14	=14	=14
1G	.	2c\	.	2e\	.
.	.	2B\	.	2d\	.
=15	=15	=15	=15	=15	=15
2C/	-jus	2G/	-jus	2c\	-jus
2c\	co-	2G/	co-	2e\	co-
=16	=16	=16	=16	=16	=16
1G	-ro-	4B\	-ro-	4d\	-ro-
.	.	4c\	.	4e\	.
.	.	4B\	.	4d\	.
.	.	4A\	.	4c\	.
!LO:LB:g=original	!	!	!	!	!
=17	=17	=17	=17	=17	=17
1G	.	4G\	.	4B\	.
.	.	4A\	.	4c\	.
.	.	4B\	.	4d\	.
.	.	4c\	.	4e\	.
=18	=18	=18	=18	=18	=18
2G\	.	2d\	.	2f\	.
4c\	-nam	4c\	-nam	4e\	-nam
4c\	de	4c\	de	4e\	de
=19	=19	=19	=19	=19	=19
4G\	la-	4f\	la-	4d\	la-
4G\	-pi-	4f\	-pi-	4d\	-pi-
2E\	-de	2e\	-de	2c\	-de
=20	=20	=20	=20	=20	=20
2G\	pre-	2d\	pre-	2B\	pre-
2c\	-ti-	2e\	-ti-	2c\	-ti-
!	!	!LO:LB:g=original	!	!LO:PB:g=original	!
=21	=21	=21	=21	=21	=21
1G	-o-	1d	-o-	2c\	-o-
.	.	.	.	2B\	.
=22	=22	=22	=22	=22	=22
2C/	-so,	2e\	-so,	2c\	-so,
2C/	vi-	2e\	vi-	2c\	vi-
=23	=23	=23	=23	=23	=23
2G\	.	2e\	.	2c\	.
2GG/	-tam	2d\	-tam	2B\	-tam
=24	=24	=24	=24	=24	=24
4C/	vi-	1c	vi-	1e	vi-
4D/	.	.	.	.	.
4E\	.	.	.	.	.
4F\	.	.	.	.	.
!LO:PB:g=original	!	!	!	!	!
=25	=25	=25	=25	=25	=25
2G\	.	2c\	.	2e\	.
2GG/	-tam	2B\	-tam	2d\	-tam
=26	=26	=26	=26	=26	=26
1r	.	1e	vi-	1g	vi-
=27	=27	=27	=27	=27	=27
2C/	vi-	2e\	.	2g\	.
2G\	-tam	2d\	-tam	2f\	-tam
=28	=28	=28	=28	=28	=28
0r	.	4c\	pe-	4e\	pe-
.	.	4d\	.	4f\	.
.	.	4c\	.	4e\	.
.	.	4B\	.	4d\	.
!	!	!	!	!LO:LB:g=original	!
=29-	=29	=29	=29	=29	=29
.	.	4A\	.	4c\	.
.	.	4B\	.	4d\	.
.	.	4A\	.	4c\	.
.	.	4G\	.	4B\	.
!	!	!LO:LB:g=original	!	!	!
=30	=30	=30	=30	=30	=30
2D\	pe-	2F/	.	2A\	.
4G\	-ti-	4G/	-ti-	4B\	-ti-
4G\	-it	4G/	-it	4B\	-it
=31	=31	=31	=31	=31	=31
1G	â	4G/	a'	4B\	a'
.	.	4A/	.	4c\	.
.	.	4B/	.	4d\	.
.	.	4c/	.	4e\	.
=32	=32	=32	=32	=32	=32
1G	.	4d\	.	4f\	.
.	.	4c\	.	4e\	.
.	.	4B\	.	4d\	.
.	.	4A\	.	4c\	.
=33	=33	=33	=33	=33	=33
2G\	te	2G/	te	2B\	te
2r	.	2r	.	2r	.
=34	=34	=34	=34	=34	=34
2G\	et	2G/	et	2B\	et
4G\	tri-	4G/	tri-	4B\	tri-
4F#X\	-bu-	4A/	-bu-	4c\	-bu-
!	!	!	!	!LO:LB:g=original	!
=35	=35	=35	=35	=35	=35
2G\	-is-	2B\	-is-	2d\	-is-
2G\	-ti	2B\	-ti	2d\	-ti
!LO:LB:g=original	!	!	!	!	!
=36	=36	=36	=36	=36	=36
2G\	et	2B\	et	2d\	et
4G\	tri-	4B\	tri-	4d\	tri-
4c\	-bu-	4c\	-bu-	4e\	-bu-
!	!	!LO:LB:g=original	!	!	!
=37	=37	=37	=37	=37	=37
2B\	-is-	2d\	-is-	2f\	-is-
2G\	-ti	2d\	-ti	2f\	-ti
=38	=38	=38	=38	=38	=38
4c\	e-	4c\	e-	4e\	e-
4G\	.	4B\	.	4d\	.
4E\	.	4c\	.	4e\	.
4D\	.	4d\	.	4f\	.
=39	=39	=39	=39	=39	=39
4C/	.	4e\	.	4g\	.
4F\	.	4d\	.	4f\	.
2G\	.	4c\	.	4e\	.
.	.	4B\	.	4d\	.
=40	=40	=40	=40	=40	=40
2C/	-i	2c\	-i	2e\	-i
2r	.	2r	.	2r	.
!	!	!	!	!LO:LB:g=original	!
=41	=41	=41	=41	=41	=41
0r	.	2G/	et	2B\	et
.	.	4G/	tri-	4B\	tri-
.	.	4A/	-bu-	4c\	-bu-
=42-	=42	=42	=42	=42	=42
.	.	2B\	-is-	2d\	-is-
.	.	2B\	-ti	2d\	-ti
=43	=43	=43	=43	=43	=43
2G\	et	2B\	et	2d\	et
4G\	tri-	4B\	tri-	4d\	tri-
4c\	-bu-	4c\	-bu-	4e\	-bu-
=44	=44	=44	=44	=44	=44
4d\	-i-	1d	-is-	1f	-is-
4c\	.	.	.	.	.
4B\	.	.	.	.	.
4A\	.	.	.	.	.
!LO:LB:g=original	!	!	!	!	!
=45	=45	=45	=45	=45	=45
2B\	-sti	2d\	-ti	2f\	-ti
2r	.	2r	.	2r	.
!	!	!LO:LB:g=original	!	!	!
=46	=46	=46	=46	=46	=46
4C/	e-	4c\	e-	4e\	e-
4E\	.	4e\	.	4g\	.
4F\	.	4d\	.	4f\	.
4F#X\	.	4c\	.	4e\	.
=47	=47	=47	=47	=47	=47
1G	.	4B\	.	4d\	.
.	.	4d\	.	4f\	.
.	.	4c\	.	4e\	.
.	.	4B\	.	4d\	.
!	!	!	!	!LO:LB:g=original	!
=48	=48	=48	=48	=48	=48
2C/	-i	2G/	-i	2e\	-i
2c\	al-	2G/	al-	2e\	al-
=49	=49	=49	=49	=49	=49
2c\	-le-	2G/	-le-	2e\	-le-
2G\	-lu-	2B\	-lu-	2d\	-lu-
=50	=50	=50	=50	=50	=50
2E\	-ia	2G/	-ia	2c\	-ia
2G\	al-	2d\	al-	2f\	al-
=51	=51	=51	=51	=51	=51
2G\	-le-	2d\	-le-	2f\	-le-
2G\	-lu-	2c\	-lu-	2e\	-lu-
=52	=52	=52	=52	=52	=52
2G\	-ia	2B\	-ia	2d\	-ia
[>2C/	al-	2e\	al-	2g\	al-
=53	=53	=53	=53	=53	=53
2C/]	-le-	2e\	-le-	2g\	-le-
2G\	.	2d\	.	2f\	.
!LO:LB:g=original	!	!	!	!	!
=54	=54	=54	=54	=54	=54
1C	.	4c\	.	4e\	.
.	.	4B\	.	4d\	.
.	.	4c\	.	4e\	.
.	.	4d\	.	4f\	.
!	!	!LO:LB:g=original	!	!LO:LB:g=original	!
=55	=55	=55	=55	=55	=55
4G\	.	1c	.	1e	.
4F\	.	.	.	.	.
4E\	.	.	.	.	.
4F\	.	.	.	.	.
=56	=56	=56	=56	=56	=56
1G	-lu-	1B	-lu-	1d	-lu-
=57	=57	=57	=57	=57	=57
1C	-ia	1c	-ia	1e	-ia
!LO:LB:g=original	!	!LO:LB:g=original	!	!LO:LB:g=original	!
==	==	==	==	==	==
*-	*-	*-	*-	*-	*-
!!!system-decoration: [(s1,s2,s3)]
!!!RDF**kern: < = below
!!!RDF**kern: > = above
!!!ENC: Marta Chmielewska
!!!END: 2021-08-06
!!!ENC: Tomasz Grochalski
!!!END: 2021-07-09
